X:1
T:Beautiful, Beautiful Brown Eyes
M:3/4
L:1/4
K:F
 A A A| F G A| B B2| A A B| c2 A| G2 G| A A G| F G A| B B3/2 B/2| c G A|\
 B A G| F3| A3/2 A/2 A| F G A| B B2| A3/2 A/2 A| c B A| G3| c2- B|\
 A3/2 A/2 A| F G A| B B3/2 B/2| c/2 G3/2 A| B A3/2 G/2| F3|
